X:1
T:Title
%%score ( 1 2 ) 3
L:1/8
M:9/8
K:G
V:1 treble nm="Grand Piano, Piano"
V:2 treble 
V:3 bass nm="Grand Piano, Piano"
V:1
 z3 z3[Q:1/4=100] [B,D]2 [B,G] | [DB]3 [DB]3 [DB][CA][B,G] | [DA]6 D2 [DF] | %3
w: 1.~Take~ my~|life,~ and~ let~ * it~|be~ Con se|
 [FA]3 [Ac]3 [Ac][GB][FA] |[M:3/4] [GB]6 |[M:3/8] [GB][FA][GB] |[M:9/8] [Dd]3 [DB]3 AGE | %7
w: cra ted,~ Lord,~ * to~|Thee;~|Take~ * my~|hands~ and~ let~ * them~|
 [EG]6 AG[CE] | [B,D]3 [DG]3 [GB]2 [DA] |[M:3/4] [DG]6 |] %10
w: move~ At~ * the~|im pulse~ of~ thy~|love.~|
V:2
 x9 | x9 | x9 | x9 |[M:3/4] x6 |[M:3/8] x3 |[M:9/8] z3 z3 .E3 | z3 z3 .E3 | x9 |[M:3/4] x6 |] %10
V:3
 z3 z3 [G,,G,]2 [G,,G,] | [G,,G,]3 [G,,G,]3 [G,,G,]2 [G,,G,] | [D,F,]6 [D,D]2 [D,D] | %3
 [D,D]3 [D,D]3 [D,D]2 [D,D] |[M:3/4] [G,D]6 |[M:3/8] [G,D]2 [G,D] | %6
[M:9/8] [G,B,]3 G,3 [C,C]2 [C,C] | [C,C]6 [C,C]2 [C,G,] | [D,G,]3 [D,B,]3 [D,D]2 [D,C] | %9
[M:3/4] [G,B,]6 |] %10

